X: 51
T:Showman's Jig (#161), The
M:6/8
L:1/8
S:Rice-Walsh manuscript
K:A
c/2d/2|eaa fec|dfe dcB|AAA cBA|GBB Bcd|
eaa fec|dfe dcB|AAA Bcd|1cAA A2:|2cAA AGF|
|:EAA cAA|eAA cAA|EAA cBA|GBB Bcd|
EAA cAA|eAA cAA|DAA Bcd|1cAA AGF:|2cAA A2||

